X:1
T:Brandenburg Concerto N°5
T:Brandenburg Concerto N°5
T:Johann Sebastian Bach
T:MMII Alfred Publishing Co., Inc.
C:Johann Sebastian Bach
Z:MMII Alfred Publishing Co., Inc.
%%score 1 2
L:1/8
Q:1/4=118
M:4/4
K:D
V:1 treble nm="Violin" snm="Vln."
V:2 treble nm="Violin" snm="Vln."
V:1
!f!"^Allegro moderato" DDFF AAdd | .c2 .A2 .G2 .E2 | DDFF AAdd | .c2 .A2 z2 EE | FFEE GGFF | %5
 .B2 .A2 .c2 .d2 | GGFF BBAA | EEGG .F2 .E2 :| .D2 .d2 .c2 .A2 | A4 z4 | z2 .B2 .A2 .G2 | %11
 FF .A2 GG .E2 | .D2 .F2 .G2 .A2 | B4 B4 | z2 .E2 .F2 .G2 | A4 A4 | z2 .D2 .E2 .F2 | %17
 .G2 .F2 .E2 .A2 | DDFF AAdd | .c2 .A2 .G2 .E2 | DDFF AAdd | .c2 .G2 z2 EE | FFEE GGFF | %23
 .B2 .A2 .c2 .d2 | GGFF BBAA | EEGG .A2 .c2 | d4 z4 |] %27
V:2
!f! .D2 .D2 .D2 .F2 | GGEE EEEE | .D2 .D2 .D2 .F2 | .E2 .D2 z2 EE | .D2 .E2 .D2 .D2 | DDDD EEFF | %6
 .E2 .D2 .D2 .D2 | EEEE .D2 .E2 :| D2 z2 z4 | z2 .F2 .E2 .D2 | .E2 .G2 .F2 .E2 | DD .F2 EE .E2 | %12
 F4 D4 | D4 (.G2 .F2) | E4 D4 | D4 (.F2 .E2) | D4 (.E2 .D2) | .E2 .D2 .E2 .E2 | .D2 .D2 .D2 .F2 | %19
 GGEE EEEE | .D2 .D2 .D2 .F2 | .E2 .D2 z2 EE | .D2 .E2 .D2 .D2 | DDDD EEFF | .E2 .D2 .D2 .D2 | %25
 EEEE F2 G2 | F4 z4 |] %27

